static/dist/images/icons/stopwatch.svg

<svg xmlns="http://www.w3.org/2000/svg" viewBox="0 0 20 20"><path d="M7.376 6.745c-.447.275 1.197 4.242 1.598 4.888a1.206 1.206 0 0 0 2.053-1.266c-.397-.648-3.205-3.898-3.651-3.622zm-.335-4.343a8.98 8.98 0 0 1 5.918 0c.329.114.765-.115.572-.611-.141-.36-.277-.712-.332-.855-.131-.339-.6-.619-.804-.665C11.623.097 10.823 0 10 0S8.377.097 7.604.271c-.204.046-.672.326-.803.665l-.332.855c-.193.496.243.726.572.611zm12.057.784a10.132 10.132 0 0 0-1.283-1.285c-.153-.129-.603-.234-.888.051l-1.648 1.647a9.27 9.27 0 0 1 1.155.966c.362.361.677.752.966 1.155l1.647-1.647c.286-.286.181-.735.051-.887zM10 2.9A8.1 8.1 0 0 0 1.899 11 8.1 8.1 0 0 0 10 19.101 8.1 8.1 0 0 0 10 2.9zm0 14.201A6.1 6.1 0 1 1 10.001 4.9 6.1 6.1 0 0 1 10 17.1z"/></svg>

<?xml version="1.0" encoding="utf-8"?>
<!-- Generator: Adobe Illustrator 18.1.0, SVG Export Plug-In . SVG Version: 6.00 Build 0)  -->
<!DOCTYPE svg PUBLIC "-//W3C//DTD SVG 1.1//EN" "http://www.w3.org/Graphics/SVG/1.1/DTD/svg11.dtd">
<svg version="1.1" id="Stopwatch" xmlns="http://www.w3.org/2000/svg" xmlns:xlink="http://www.w3.org/1999/xlink" x="0px" y="0px"
	 viewBox="0 0 20 20" enable-background="new 0 0 20 20" xml:space="preserve">
<path d="M7.376,6.745c-0.447,0.275,1.197,4.242,1.598,4.888c0.35,0.569,1.093,0.742,1.658,0.394c0.568-0.352,0.745-1.094,0.395-1.66
	C10.63,9.719,7.822,6.469,7.376,6.745z M7.041,2.402C7.969,2.079,8.963,1.9,10,1.9s2.031,0.179,2.959,0.502
	c0.329,0.114,0.765-0.115,0.572-0.611c-0.141-0.36-0.277-0.712-0.332-0.855c-0.131-0.339-0.6-0.619-0.804-0.665
	C11.623,0.097,10.823,0,10,0S8.377,0.097,7.604,0.271C7.4,0.317,6.932,0.597,6.801,0.936C6.746,1.079,6.609,1.431,6.469,1.791
	C6.276,2.287,6.712,2.517,7.041,2.402z M19.098,3.186c-0.192-0.23-0.396-0.455-0.613-0.672c-0.216-0.217-0.441-0.42-0.67-0.613
	c-0.153-0.129-0.603-0.234-0.888,0.051c-0.284,0.285-1.648,1.647-1.648,1.647c0.402,0.288,0.793,0.605,1.155,0.966
	c0.362,0.361,0.677,0.752,0.966,1.155c0,0,1.363-1.362,1.647-1.647C19.333,3.787,19.228,3.338,19.098,3.186z M10,2.9
	c-4.475,0-8.101,3.626-8.101,8.1c0,4.475,3.626,8.101,8.101,8.101c4.473,0,8.1-3.626,8.1-8.101C18.1,6.527,14.473,2.9,10,2.9z
	 M10,17.101c-3.368,0-6.1-2.731-6.1-6.1c0-3.369,2.731-6.1,6.1-6.1c3.369,0,6.101,2.731,6.101,6.1
	C16.101,14.369,13.369,17.101,10,17.101z"/>
</svg>
